X:1569
T:"The  Halfway House"  (hornpipe) 1569
C:Unattributed
N:Added 2nd Anacrucis
B:O'Neill's Music Of Ireland (The 1850) Lyon & Healy, Chicago, 1903 edition
Z:FROM O'NEILL'S TO NOTEWORTHY, FROM NOTEWORTHY TO ABC, MIDI AND .TXT BY VINCE
BRENNAN July 2003 (HTTP://WWW.SOSYOURMOM.COM)
I:abc2nwc
M:C|
L:1/8
K:A
(3(EFG)|ABcA BGAF|Ecce fefg|agae faec|dBcA BFEF|
ABcA BGAF|Ecce fefg|agae faed|cABc A2:|
|: (3(AGF)|E2(GB) BEGB|A2(cA) eAce|B2(df) fBdf|e2(ge) befg|
agae (3(fga) ec|defg a2(ga)|bgeg agaf|ecBc A2:|
